X:179
T:Jobbra-balra sirítem a gyűrümet
O: Tarkó megálló, 1963
Q: "Tempo guisto" 1/4=100
M:4/4
L:1/4
K:Bb
G/^F/G/A/ B/A/B/c/ | d<d d z | 
g/>g/a/g/ f/e/d/c/ | f<e d z | 
(3:2:2 e/d (3:2:2  c/c (3:2:2 B/A (3:2:3  c/(B/A/) | G<D d z | 
e/d/c/c/ d/B/c/B/ | G<G G z | 


